X:1
T:Title
%%score { ( 1 3 ) | 2 }
L:1/8
Q:1/4=108
M:6/4
K:G
V:1 treble nm="Grand Piano"
V:3 treble 
V:2 bass 
V:1
 B2 A2 G2 D4 ^CD | E2 [CEG]2 [Ec]2 B6 | d2 e2 d2 B4 AG | z6 [FA]6 | B2 A2 G2 D4 ^CD | %5
w: Grant~Colfax~Tullar * * * * *|||||
 E2 [EG]2 [^Dc]2 B6 | B2 c2 d2 [Ed]2 [Ec]2 [CEA]2 | [B,DG]2 [DGB]2 [CFA]2 [B,G]6 | z6 [Fc]6 | %9
w: ||||
 B2 B2 c2 d6 | e2 c2 e2 d2 c2 B2 | z6 [FA]6 | B2 B2 B2 B6 | B2 c2 d2 [Ee]4 [Ge]2 | %14
w: |||||
 [Gd]2 [B,G]2 [EAc]2 [DGB]2 [DFB]3 [CFA] | [B,G]12 |] %16
w: ||
V:2
 [G,D]2 [G,CD]2 [G,B,D]2 [G,B,]4 [E,G,_B,][D,G,=B,] | [C,G,C]2 C,2 C,2[K:treble] [G,D]6 | %2
 [G,B,G]2 [G,CG]2 [G,B,G]2 [G,DG]4 [G,CF][K:bass][G,B,D] | [E,A,^C]2 [A,C]2 [A,CE]2 .[D,D]6 | %4
 [G,D]2 [G,CD]2 [G,B,D]2 [G,B,]4 [E,G,_B,][D,G,=B,] | [C,G,C]2 [C,C]2 [C,G,]2[K:treble] [G,D]6 | %6
 [G,G]2 [G,A,F]2 [G,B,=F]2[K:bass] [C,G,]2 [C,A,]2 C,2 | D,2 D,2 D,2 G,6 | D,2 D,2 D,2 .[D,A,]6 | %9
 [G,DG]2 [G,DG]2 [G,A,G]2 [G,B,G]6 | [CG]2 [CEG]2 [CG]2 [B,DG]2 [A,DF]2 [G,DG]2 | %11
 [F,D]2 [F,D]2 [G,D]2 .[D,D]6 | [G,D]2[K:treble] [G,DG]2 [G,DF]2 [G,D=F]6 | %13
 [G,D=F]2 [G,A,F]2 [G,B,F]2[K:bass] [C,C]4 [^C,_B,]2 | [D,B,]2 E,2 C,2 D,2 D,3 D, | G,12 |] %16
V:3
 x12 | x12 | x12 | G2 F2 G2 z2 C2 A,2 | x12 | x12 | x12 | x12 | [CFA]2 [CFA]2 [B,GB]2 z4 D2 | x12 | %10
 x12 | [Ad]2 [Ac]2 [GB]2 z2 C2 A,2 | x12 | x12 | x12 | x12 |] %16

